X: 9
M: 4/4
L: 1/8
K: Gmaj
|: d>c | B2 g2 g>dB>G | c2 e2 e2 g>e | d>Bd>B e>dc>B | A>Bc>A G>FE>D |
|: d>c | B>GB>G B2 d2 | e>ce>c e2 g2 | d>Bd>B e>dc>B | A>Bc>A G>FE>D |


